X: 27586
T: Montague's
R: jig
M: 6/8
K: Amixolydian
|~c3 c2B|Aaa A2B|~c3 cBA|~B3 B2c|~d3 fed|cea A2c|~B3 dcB|Ace aed|
caa Baa|~A3 A2B|caA cBA|~B3 B2c|~d3 fed|~c3 e2c|~B3 dcB|~A3 A2|
B|~e3 eac|~e3 e2c|~e3 eac|~B3 B2c|~d3 fed|cea A2c|~B3 dcB|Ace aec|
~e3 eac|~e3 e2c|~e3 eac|edc B2c|~d3 fed|~c3 e2c|~B3 dcB|~A3 A2|

